svg/editor/pen_2_fill.svg

<?xml version="1.0" encoding="UTF-8"?>
<svg width="24px" height="24px" viewBox="0 0 24 24" version="1.1" xmlns="http://www.w3.org/2000/svg" xmlns:xlink="http://www.w3.org/1999/xlink">
    <title>pen_2_fill</title>
    <g id="页面-1" stroke="none" stroke-width="1" fill="none" fill-rule="evenodd">
        <g id="Editor" transform="translate(-576.000000, -144.000000)">
            <g id="pen_2_fill" transform="translate(576.000000, 144.000000)">
                 <path d="M24,0 L24,24 L0,24 L0,0 L24,0 Z M12.5934901,23.257841 L12.5819402,23.2595131 L12.5108777,23.2950439 L12.4918791,23.2987469 L12.4918791,23.2987469 L12.4767152,23.2950439 L12.4056548,23.2595131 C12.3958229,23.2563662 12.3870493,23.2590235 12.3821421,23.2649074 L12.3780323,23.275831 L12.360941,23.7031097 L12.3658947,23.7234994 L12.3769048,23.7357139 L12.4804777,23.8096931 L12.4953491,23.8136134 L12.4953491,23.8136134 L12.5071152,23.8096931 L12.6106902,23.7357139 L12.6232938,23.7196733 L12.6232938,23.7196733 L12.6266527,23.7031097 L12.609561,23.275831 C12.6075724,23.2657013 12.6010112,23.2592993 12.5934901,23.257841 L12.5934901,23.257841 Z M12.8583906,23.1452862 L12.8445485,23.1473072 L12.6598443,23.2396597 L12.6498822,23.2499052 L12.6498822,23.2499052 L12.6471943,23.2611114 L12.6650943,23.6906389 L12.6699349,23.7034178 L12.6699349,23.7034178 L12.678386,23.7104931 L12.8793402,23.8032389 C12.8914285,23.8068999 12.9022333,23.8029875 12.9078286,23.7952264 L12.9118235,23.7811639 L12.8776777,23.1665331 C12.8752882,23.1545897 12.8674102,23.1470016 12.8583906,23.1452862 L12.8583906,23.1452862 Z M12.1430473,23.1473072 C12.1332178,23.1423925 12.1221763,23.1452606 12.1156365,23.1525954 L12.1099173,23.1665331 L12.0757714,23.7811639 C12.0751323,23.7926639 12.0828099,23.8018602 12.0926481,23.8045676 L12.108256,23.8032389 L12.3092106,23.7104931 L12.3186497,23.7024347 L12.3186497,23.7024347 L12.3225043,23.6906389 L12.340401,23.2611114 L12.337245,23.2485176 L12.337245,23.2485176 L12.3277531,23.2396597 L12.1430473,23.1473072 Z" id="MingCute" fill-rule="nonzero"></path>
                <path d="M16.2423,3.51454 C17.4138,2.34297 19.3133,2.34297 20.4849,3.51454 C21.609636,4.6392568 21.6546254,6.43481546 20.6198683,7.61319076 L20.4849,7.75718 L19.7778,8.46431 L20.4849,9.17143 C21.2247947,9.91137211 21.2637366,11.0868474 20.6017255,11.8726776 L20.4849,11.9999 L16.2423,16.2425 C15.8517,16.633 15.2186,16.633 14.828,16.2425 C14.4675385,15.8820385 14.4398107,15.3147793 14.7448166,14.9225027 L14.828,14.8283 L19.0707,10.5856 L18.3636,9.87852 L8.4855,19.7566 C8.362652,19.8794 8.2129112,19.970968 8.0488984,20.0244944 L7.92341,20.0574 L4.43227,20.7556 C3.76479333,20.8891444 3.17195716,20.3407738 3.22721439,19.6840925 L3.24381,19.5672 L3.94203,16.076 C3.976102,15.90568 4.0499052,15.746432 4.15668632,15.6109024 L4.24285,15.5139 L16.2423,3.51454 Z M17.6565,4.92885 L16.9494,5.63593 L18.3636,7.05014 L19.0707,6.34306 C19.4612,5.95254 19.4612,5.31937 19.0707,4.92885 C18.6802,4.53833 18.047,4.53833 17.6565,4.92885 Z" id="形状" fill="#09244B"></path>
            </g>
        </g>
    </g>
</svg>

<svg xmlns="http://www.w3.org/2000/svg" width="24" height="24"><g fill="none" fill-rule="evenodd"><path d="M24 0v24H0V0h24ZM12.593 23.258l-.011.002-.071.035-.02.004-.014-.004-.071-.035c-.01-.004-.019-.001-.024.005l-.004.01-.017.428.005.02.01.013.104.074.015.004.012-.004.104-.074.012-.016.004-.017-.017-.427c-.002-.01-.009-.017-.017-.018Zm.265-.113-.013.002-.185.093-.01.01-.003.011.018.43.005.012.008.007.201.093c.012.004.023 0 .029-.008l.004-.014-.034-.614c-.003-.012-.01-.02-.02-.022Zm-.715.002a.023.023 0 0 0-.027.006l-.006.014-.034.614c0 .012.007.02.017.024l.015-.002.201-.093.01-.008.004-.011.017-.43-.003-.012-.01-.01-.184-.092Z"/><path fill="#09244B" d="M16.242 3.515a3 3 0 0 1 4.378 4.098l-.135.144-.707.707.707.707a2 2 0 0 1 .117 2.702l-.117.127-4.243 4.243a1 1 0 0 1-1.497-1.32l.083-.095 4.243-4.242-.707-.707-9.878 9.878a1.1 1.1 0 0 1-.437.267l-.126.033-3.49.699a1.01 1.01 0 0 1-1.206-1.072l.017-.117.698-3.491a1.1 1.1 0 0 1 .215-.465l.086-.097 12-12Zm1.415 1.414-.708.707 1.415 1.414.707-.707a1 1 0 0 0-1.415-1.414Z"/></g></svg>
